!!!!SEGMENT: pl-kk--kk-i-382--041-004_singenberger-johann-baptist--msza-na-3-glosy-benedictus.krn
!!!cenid: 18xx:1531
!!!COM: Singenberger, Johann Baptist
!!!COM-rismid: pe30008527
!!!CDT: 1848-1924
!!!CNT:
!!!OPR: Msza na 3 głosy
!!!OTL: Benedictus
!!!OMV: 004
!!!PDT:
!!!AGN: Sacred; Mass
!!!SMS-siglum: PL-Kk
!!!SMS-shelfmark: Kk.I.382
!!!SMS-shelfwork: 027-004 M
!!!SMS-variant:
!!!SMS-altvar:
!!!NIFC-rismid: 1001140188
!!!URL-scan: http://repozytorium.nifc.pl/skany/pl-kk-nut--i-382
!!!ONB-nifc: UWAGA: obsada: S/T1, T2, B2. Skan 0034, 0111, 0255. Osobne części Mszy: Kyrie, Gloria, Sanctus, Benedictus, Agnus
**kern	**text	**kern	**text	**kern	**text
*part3	*part3	*part2	*part2	*part1	*part1
*staff3	*staff3	*staff2	*staff2	*staff1	*staff1
*Ibass	*	*Itenor	*	*Itenor	*
*I"Basso II	*	*I"Tenor II	*	*I"Soprano vel. Tenor I	*
*I'B.II	*	*I'T.II	*	*I'S./T.I	*
*clefF4	*	*clefG2	*	*clefG2	*
*k[b-]	*	*k[b-]	*	*k[b-]	*
*F:	*	*F:	*	*F:	*
*M4/4	*	*M4/4	*	*M4/4	*
*met(c)	*	*met(c)	*	*met(c)	*
=1	=1	=1	=1	=1	=1
!	!	!	!	!LO:TX:a:t=bardzo powoli	!
!	!	!LO:TX:a:t=powoli	!	!LO:TX:t=P:problem:w półnutach z caudami do góry, są one po lewej stronie. A z caudami do dołu są po prawej	!
4F\	Be-	4f/	Be-	4f/	Be-
4C/	-ne-	4e/	-ne-	4g/	-ne-
4F\	-dic-	4f/	-dic-	4a/	-dic-
8AA/	-tus	8f/	-tus	8f/	-tus
8AA/	qui	8c/	qui	8cc\	qui
=2	=2	=2	=2	=2	=2
4BB-/	ve-	8d/L	ve-	(4.b-\	ve-
.	.	8e/J	.	.	.
4C/	-nit	4f/	.	.	.
.	.	.	.	8a/)	.
4C/	.	4e/	-nit	4g/	-nit
4C#X/	in	4e/	in	4g/	in
=3	=3	=3	=3	=3	=3
4D\	no-	4f/	no-	4a/	no-
8E\	-mi-	8e/	-mi-	8g/	-mi-
8F\	-ne	8d/	-ne	8f/	-ne
4G\	Do-	4c/	Do-	4e/	Do-
4GG/	-mi-	4An/	-mi-	4d/	-mi-
!LO:LB:g=original	!	!	!	!LO:LB:g=original	!
=4	=4	=4	=4	=4	=4
!LO:TX:t=P:problem:w półnutach z caudami do góry, są one po lewej stronie. A z caudami do dołu są po prawej	!	!LO:TX:t=P:problem:w półnutach z caudami do góry, są one po lewej stronie. A z caudami do dołu są po prawej	!	!LO:TX:t=P:problem:w półnutach z caudami do góry, są one po lewej stronie. A z caudami do dołu są po prawej	!
2C/	-ni	2c/	-ni	2c/	-ni
4r	.	4r	.	4r	.
4C/	Ho-	4e/	Ho-	4g/	Ho-
=5	=5	=5	=5	=5	=5
2F\	-san-	2f/	-san-	2a/	-san-
4A\	-na	4c/	-na	4f/	-na
4A\	Ho-	4c/	Ho-	4f/	Ho-
=6	=6	=6	=6	=6	=6
2G\	-san-	2d/	-san-	2b-\	-san-
2c\	-na	2e/	-na	4g/	-na
.	.	.	.	[4cc\	in
=7	=7	=7	=7	=7	=7
4A\	in	(4f/	in	2.cc\]	.
4AA/	.	4c/	.	.	.
2BB-/	ex-	4d/)	.	.	.
.	.	4d/	ex-	4b-\	ex-
=8	=8	=8	=8	=8	=8
1C/	-cel-	(4c/	-cel-	(2a/	-cel-
.	.	2f/	.	.	.
.	.	.	.	2g/)	.
.	.	4e/)	.	.	.
=9	=9	=9	=9	=9	=9
1F\;<	-sis	1f/;	-sis	1f/	-sis
==	==	==	==	==	==
*-	*-	*-	*-	*-	*-
!!!system-decoration: [(s1,s2,s3)]
!!!EED: Leszek Kubiak
!!!EST: 2021-02-08
!!!AIN: 1 bass 2 tenor
!!!ENC: Andrzej Gręziak
!!!END: 2021-01-30
